X: 38679
T: Stranger At The Gate
R: reel
M: 4/4
K: Dmajor
B2EF GBEG|F~D3 BDA2|~B3d =cAFD|GFFE EDB,A,|
B,~E3 GABG|Acde fdec|dBAF DEFA|BFAF E2d=c|
B2EF GBEG|F~D3 BDAD|~B3d =cAF2|(3GAG (3FGF (3EFE (3DED|
B,3E GABG|Acde faec|dBAF DEFA|BFAF E4||
|:e3f gfe/f/g|fedf edBA|B/c/def gfec|dBAF DEFA|BEEF GABG|
[1 Acde fdec|dBAF DEFA|BFAF E2e2:|2 Acde fab2|B2AF D2FA|BFAF E2d=c||

